assets/images/svg/empty_meal_24.svg

<svg width="24" height="24" viewBox="0 0 24 24" fill="none" xmlns="http://www.w3.org/2000/svg">
<g clip-path="url(#clip0_751_60)">
<circle cx="12.5" cy="12.5" r="11.5" fill="black"/>
<circle cx="11.5" cy="11.5" r="11.3" fill="#BFE34B" stroke="black" stroke-width="0.4"/>
<path d="M18.125 11.8737C18.125 6.032 18.1052 5.37619 17.9224 5.16141C17.5955 4.7774 17.2986 5.16144 16.9847 5.4556C15.1316 7.4859 15.5282 10.472 16.5915 12.7753L16.3547 18.5134C16.3547 19.1238 18.0072 19.1747 18.0072 18.5822C18.0072 18.5822 18.125 15.7697 18.125 11.8737Z" fill="white"/>
<circle cx="11.35" cy="12.1508" r="4.85" fill="white"/>
<path d="M18.125 11.8737C18.125 6.032 18.1052 5.37619 17.9224 5.16141C17.5955 4.7774 17.2986 5.16144 16.9847 5.4556C15.1316 7.4859 15.5282 10.472 16.5915 12.7753L16.3547 18.5134C16.3547 19.1238 18.0072 19.1747 18.0072 18.5822C18.0072 18.5822 18.125 15.7697 18.125 11.8737Z" stroke="black" stroke-width="0.2"/>
<path d="M5.00125 8.66016C4.98141 8.14119 5.00125 8.00027 5.00125 8.00027L7.5 6L7.63582 8.66016C7.63582 9.02391 7.29707 9.21836 6.94406 9.62451C6.95015 10.7959 6.94453 17.2682 7.00249 18.4384C7.00249 18.7716 6.63645 18.9963 6.29676 18.9963C5.97184 18.9963 5.60228 18.7716 5.60228 18.4545L5.73576 9.65678C5.43489 9.38104 5.01814 9.10509 5.00125 8.66016Z" fill="white"/>
<path d="M5.20183 5.0386C5.20183 5.0386 4.98143 8.14115 5.00126 8.66012C5.01816 9.10505 5.43491 9.38101 5.73578 9.65675L5.60229 18.4545C5.60229 18.7716 5.97186 18.9963 6.29677 18.9963C6.63647 18.9963 7.00251 18.7716 7.00251 18.4384C6.94455 17.2682 6.95016 10.7959 6.94408 9.62447C7.29709 9.21832 7.63584 9.02388 7.63584 8.66012C7.49 6.88501 7.29709 5 7.29709 5M5.97186 5.0386V8.19751M6.70139 8.19751V5.0386" stroke="black" stroke-width="0.2" stroke-linecap="round" stroke-linejoin="round"/>
<circle cx="11.2708" cy="12.1443" r="3.54861" stroke="black" stroke-width="0.2"/>
<path d="M9.03482 7.8271C9.72885 7.45152 10.5236 7.23828 11.3682 7.23828C12.7635 7.23828 14.0229 7.82036 14.9168 8.75495M15.2059 15.2105C14.3062 16.3364 12.9214 17.0577 11.3682 17.0577C10.3591 17.0577 9.42114 16.7533 8.6411 16.2313M7.81954 15.5411C7.76978 15.489 7.72116 15.4359 7.67371 15.3817" stroke="black" stroke-width="0.2"/>
<path d="M9.08325 12.1931C9.08325 11.2501 9.66706 10.4434 10.493 10.1147M11.3194 9.95703C11.3356 9.95703 11.3518 9.9572 11.368 9.95755" stroke="black" stroke-width="0.2"/>
</g>
<defs>
<clipPath id="clip0_751_60">
<rect width="24" height="24" fill="white"/>
</clipPath>
</defs>
</svg>

<svg xmlns="http://www.w3.org/2000/svg" width="24" height="24" fill="none">
    <g clip-path="url(#a)">
        <circle cx="12.5" cy="12.5" r="11.5" fill="#000" />
        <circle cx="11.5" cy="11.5" r="11.3" fill="#BFE34B" stroke="#000" stroke-width=".4" />
        <path fill="#fff"
            d="M18.13 11.87c0-5.84-.02-6.5-.2-6.7-.33-.4-.63 0-.95.29-1.85 2.03-1.45 5.01-.39 7.32l-.24 5.73c0 .61 1.66.66 1.66.07 0 0 .11-2.81.11-6.7Z" />
        <circle cx="11.35" cy="12.15" r="4.85" fill="#fff" />
        <path stroke="#000" stroke-width=".2"
            d="M18.13 11.87c0-5.84-.02-6.5-.2-6.7-.33-.4-.63 0-.95.29-1.85 2.03-1.45 5.01-.39 7.32l-.24 5.73c0 .61 1.66.66 1.66.07 0 0 .11-2.81.11-6.7Z" />
        <path fill="#fff"
            d="M5 8.66C4.98 8.14 5 8 5 8l2.5-2 .14 2.66c0 .36-.34.56-.7.96.01 1.18 0 7.65.06 8.82 0 .33-.36.56-.7.56-.33 0-.7-.23-.7-.55l.14-8.8c-.3-.27-.72-.54-.74-.99Z" />
        <path stroke="#000" stroke-linecap="round" stroke-linejoin="round" stroke-width=".2"
            d="M5.2 5.04s-.22 3.1-.2 3.62c.02.45.43.72.74 1l-.14 8.8c0 .31.37.54.7.54.34 0 .7-.23.7-.56-.06-1.17-.05-7.64-.06-8.82.36-.4.7-.6.7-.96C7.49 6.89 7.3 5 7.3 5m-1.33.04V8.2m.73 0V5.04" />
        <circle cx="11.27" cy="12.14" r="3.55" stroke="#000" stroke-width=".2" />
        <path stroke="#000" stroke-width=".2"
            d="M9.03 7.83a4.89 4.89 0 0 1 5.89.92m.29 6.46a4.9 4.9 0 0 1-6.57 1.02m-.82-.69-.15-.16M9.08 12.2c0-.95.59-1.76 1.41-2.09m.83-.15h.05" />
    </g>
    <defs>
        <clipPath id="a">
            <path fill="#fff" d="M0 0h24v24H0z" />
        </clipPath>
    </defs>
</svg>
